X:491
T:Mudgee Waltz
M:3/4
L:1/8
K:C
"C"E3 F G2|C2 D2 E2|"Dm"F4 A2|D4 G2|"G7"B3 A G2|F2 G2 F2|"C"E4 F2|\
G6|"C"E3 F G2|C2 D2 E2|"Dm"F4 A2|D4 G2|"G7"B3 A G2|F2 E2 D2|"C"C6|C6|
"C"e3 d c2|E2 G2 c2|"G7"B4 A2|D4 G2|B3 A G2|F2 G2 F2|"C"E4 F2|G6|\
"C"e3 d c2|E2 G2 c2|"G7"B4 A2|D4 G2|B3 A G2|F2 E2 D2|"C"C6|C6|]
